X:1
T:Sporran Mullach, The
T:Sporran Mullach, The
T:Black (Kilt) Purse
T:Alexander Walker
C:Alexander Walker
L:1/8
M:4/4
K:C
V:1 treble 
V:1
 .C/.A,/ | A,>B,C>D E<AA>c | B>G (B/c/).d/.B/ G2 G>B, | A,>B,C>D{F} E>D (E<A) | %4
{d} (d/B/).d/.d/ e>^G | (A2 A) :| ^g | a<Aa>^g a<Ac>e | g>a g^g | a<Aa>^g a<Ac>d | e/d/e/^f/ g^g | %11
 a<A a>^g a<Ac>e | d<B{B}g>B{B} (G2 G>)B | (3ABc (3Bcd c<ee>a | (g/^f/).e/.d/ g<B{B} A2 A || %15

